editor/icons/icon_texture_array.svg

<svg height="16" viewBox="0 0 16 16" width="16" xmlns="http://www.w3.org/2000/svg"><g fill="#e0e0e0"><path d="m2 1c-.5522847 0-1 .4477153-1 1v12c0 .552285.4477153 1 1 1h12c.552285 0 1-.447715 1-1v-12c0-.5522847-.447715-1-1-1zm1 2h10v8h-10z" fill-opacity=".99608" transform="translate(.359546 -.287637)"/><g fill-opacity=".996078" stroke-width=".207395" transform="matrix(1.6197742 0 0 .750929 -3.723153 1.832957)"><path d="m4.7302951 2.4553483h2.2481639v.9872012h-1.0701592v6.0559397h1.0701592v.9872008h-2.2481639z"/><path d="m10.138643 10.48569h-2.2481636v-.9872008h1.0701592v-6.0559397h-1.0701592v-.9872012h2.2481636z"/></g></g></svg>

<?xml version="1.0" encoding="UTF-8" standalone="no"?>
<svg
   xmlns:dc="http://purl.org/dc/elements/1.1/"
   xmlns:cc="http://creativecommons.org/ns#"
   xmlns:rdf="http://www.w3.org/1999/02/22-rdf-syntax-ns#"
   xmlns:svg="http://www.w3.org/2000/svg"
   xmlns="http://www.w3.org/2000/svg"
   xmlns:sodipodi="http://sodipodi.sourceforge.net/DTD/sodipodi-0.dtd"
   xmlns:inkscape="http://www.inkscape.org/namespaces/inkscape"
   width="16"
   height="16"
   version="1.1"
   viewBox="0 0 16 16"
   id="svg6"
   sodipodi:docname="icon_texture_array.svg"
   inkscape:version="0.92.3 (2405546, 2018-03-11)">
  <metadata
     id="metadata12">
    <rdf:RDF>
      <cc:Work
         rdf:about="">
        <dc:format>image/svg+xml</dc:format>
        <dc:type
           rdf:resource="http://purl.org/dc/dcmitype/StillImage" />
        <dc:title></dc:title>
      </cc:Work>
    </rdf:RDF>
  </metadata>
  <defs
     id="defs10" />
  <sodipodi:namedview
     pagecolor="#ffffff"
     bordercolor="#666666"
     borderopacity="1"
     objecttolerance="10"
     gridtolerance="10"
     guidetolerance="10"
     inkscape:pageopacity="0"
     inkscape:pageshadow="2"
     inkscape:window-width="1526"
     inkscape:window-height="766"
     id="namedview8"
     showgrid="false"
     inkscape:zoom="29.5"
     inkscape:cx="8.3117238"
     inkscape:cy="9.4909723"
     inkscape:window-x="67"
     inkscape:window-y="27"
     inkscape:window-maximized="0"
     inkscape:current-layer="svg6" />
  <g
     id="g830"
     transform="translate(0.35954582,-0.28763666)">
    <path
       d="M 2,1 C 1.4477153,1 1,1.4477153 1,2 v 12 c 0,0.552285 0.4477153,1 1,1 h 12 c 0.552285,0 1,-0.447715 1,-1 V 2 C 15,1.4477153 14.552285,1 14,1 Z m 1,2 h 10 v 8 H 3 Z"
       id="path2"
       inkscape:connector-curvature="0"
       style="fill:#e0e0e0;fill-opacity:0.99607999"
       sodipodi:nodetypes="sssssssssccccc" />
  </g>
  <g
     aria-label="[]"
     transform="matrix(1.6197742,0,0,0.750929,-3.7231532,1.8329569)"
     style="font-style:normal;font-variant:normal;font-weight:bold;font-stretch:normal;font-size:8.29580784px;line-height:1.25;font-family:Ubuntu;-inkscape-font-specification:'Ubuntu Bold';letter-spacing:0px;word-spacing:0px;fill:#e0e0e0;fill-opacity:0.99607843;stroke:none;stroke-width:0.2073952"
     id="text834">
    <path
       d="M 4.7302951,2.4553483 H 6.978459 V 3.4425495 H 5.9082998 V 9.4984892 H 6.978459 V 10.48569 H 4.7302951 Z"
       style="fill:#e0e0e0;fill-opacity:0.99607843;stroke-width:0.2073952"
       id="path862"
       inkscape:connector-curvature="0" />
    <path
       d="M 10.138643,10.48569 H 7.8904794 V 9.4984892 H 8.9606386 V 3.4425495 H 7.8904794 V 2.4553483 h 2.2481636 z"
       style="fill:#e0e0e0;fill-opacity:0.99607843;stroke-width:0.2073952"
       id="path864"
       inkscape:connector-curvature="0" />
  </g>
</svg>
